brandFactory_export/3.Masa/Teatro _3Masa.svg

<?xml version="1.0" encoding="UTF-8"?>
<svg width="24px" height="24px" viewBox="0 0 24 24" version="1.1" xmlns="http://www.w3.org/2000/svg" xmlns:xlink="http://www.w3.org/1999/xlink">
    <title>3.Masa/Teatro _3Masa</title>
    <g id="Symbols" stroke="none" stroke-width="1" fill="none" fill-rule="evenodd">
        <g id="3.Masa/Teatro-_3Masa" fill="#5CB615" fill-rule="nonzero">
            <path d="M10.6386555,13.7159664 C10.702521,13.605042 10.7462185,13.4941176 10.7798319,13.3865546 C9.83193277,14.0117647 8.13781513,14.8252101 5.72436975,14.7445378 C6.2487395,15.1378151 7.15294118,15.4537815 8.61176471,15.0504202 C9.62352941,14.7680672 10.3058824,14.3176471 10.6386555,13.7159664 Z M11.4319328,11.8268908 C11.6067227,11.8705882 11.7478992,12.005042 11.7983193,12.1764706 C11.8117647,12.2168067 12.0840336,13.1915966 11.5193277,14.2067227 C11.0487395,15.0537815 10.1613445,15.6655462 8.88403361,16.0252101 C8.30588235,16.1865546 7.79159664,16.2571429 7.33445378,16.2571429 C4.92773109,16.2571429 4.1512605,14.3613445 4.14117647,14.3378151 C4.07394958,14.1697479 4.10420168,13.9815126 4.21176471,13.8403361 C4.32268908,13.6991597 4.49747899,13.6218487 4.67563025,13.6487395 C8.81344538,14.189916 10.9277311,11.994958 10.9478992,11.9714286 C11.0756303,11.8369748 11.2571429,11.7865546 11.4319328,11.8268908 L11.4319328,11.8268908 Z M3.89243697,11.1142857 C4.05042017,11.1142857 4.22184874,11.1042017 4.38655462,11.0840336 C4.93781513,11.0235294 5.45882353,10.8319328 5.45882353,10.8319328 C5.45882353,10.8319328 5.82521008,10.6369748 5.49915966,10.3647059 C5.49915966,10.3647059 5.15630252,9.96806723 4.58487395,9.96806723 C4.25210084,9.96806723 3.84537815,10.0991597 3.37815126,10.5193277 C2.88067227,10.9630252 3.30084034,11.1142857 3.89243697,11.1142857 Z M5.80504202,11.7831933 C5.74117647,11.8067227 5.15294118,12.0184874 4.50084034,12.092437 C4.28907563,12.1159664 4.08403361,12.1294118 3.89243697,12.1294118 C3.00504202,12.1294118 2.44369748,11.8403361 2.22857143,11.2722689 C2.13445378,11.0302521 2,10.405042 2.70588235,9.76638655 C3.30420168,9.22857143 3.93613445,8.95630252 4.58487395,8.95630252 C5.30420168,8.95630252 5.89243697,9.31260504 6.20840336,9.64201681 C6.52436975,9.93781513 6.6789916,10.3277311 6.63865546,10.7243697 C6.58487395,11.2218487 6.23529412,11.5714286 5.92605042,11.7327731 L5.80504202,11.7831933 L5.80504202,11.7831933 Z M8.19495798,9.32268908 C7.95630252,9.74285714 8.11092437,9.89411765 8.42689076,9.89411765 C8.68235294,9.89411765 9.04537815,9.79663866 9.38151261,9.65882353 C9.90588235,9.45042017 10.3529412,9.11092437 10.3529412,9.11092437 C10.3529412,9.11092437 10.6521008,8.81176471 10.2352941,8.60336134 C10.2352941,8.60336134 9.92268908,8.38487395 9.50252101,8.38487395 C9.1092437,8.38487395 8.61848739,8.57647059 8.19495798,9.32268908 L8.19495798,9.32268908 Z M8.42689076,10.9058824 C7.68067227,10.9058824 7.34453782,10.4689076 7.23697479,10.2806723 C7.06554622,9.98487395 6.94117647,9.49411765 7.3210084,8.82184874 C8.03361345,7.56134454 8.99831933,7.37310924 9.50588235,7.37310924 C10.1042017,7.37310924 10.5613445,7.61512605 10.7462185,7.72605042 C11.2705882,8.01176471 11.4151261,8.44201681 11.4521008,8.67731092 C11.5529412,9.28907563 11.1831933,9.71260504 11.0689076,9.82689076 C11.0352941,9.8605042 10.9983193,9.8907563 10.9613445,9.9210084 C10.9042017,9.96470588 10.3865546,10.3478992 9.75798319,10.6 C9.40504202,10.7378151 8.8907563,10.9058824 8.42689076,10.9058824 L8.42689076,10.9058824 Z M21.2033613,13.692437 C21.3579832,13.410084 21.3378151,13.087395 21.1462185,12.7983193 C20.9344538,12.4352941 20.3563025,11.887395 19.3546218,11.887395 C19.0521008,11.887395 18.7294118,11.9378151 18.3966387,12.0386555 C17.5394958,12.297479 17.5092437,12.8554622 17.5193277,13.0201681 C17.5697479,13.8235294 18.6823529,14.0453782 19.102521,14.1294118 C19.6168067,14.2302521 20.1210084,14.2403361 20.1747899,14.2403361 L20.1848739,14.2403361 C20.2184874,14.2403361 20.2487395,14.2403361 20.2823529,14.2369748 C20.6890756,14.2 21.0352941,13.994958 21.2033613,13.692437 L21.2033613,13.692437 Z M18.0739496,18.6504202 C18.0941176,18.6201681 18.5478992,17.8907563 18.2184874,16.9966387 C17.9731092,16.3210084 17.3613445,15.7495798 16.4033613,15.2991597 C15.2537815,14.7546218 14.292437,14.7243697 13.5563025,14.912605 C13.3378151,15.5310924 12.994958,16.0386555 12.5478992,16.4655462 C15.9092437,16.7176471 17.1630252,18.5529412 17.2134454,18.6268908 C17.2907563,18.7478992 17.4285714,18.8285714 17.5865546,18.8521008 C17.6067227,18.8554622 17.6268908,18.8588235 17.6470588,18.8588235 C17.8252101,18.8588235 17.989916,18.7815126 18.0739496,18.6504202 Z M8.75630252,17.2218487 C12.1310924,16.2773109 13.5563025,15.0268908 12.5210084,10.4857143 C11.8857143,7.70252101 10.8470588,5.64201681 10.2386555,4.6 C9.50252101,5.89411765 8.18151261,6.89915966 6.35630252,7.53781513 C5.36806723,7.88067227 3.16302521,8.00168067 1.02521008,7.05714286 C1.07563025,8.44201681 1.27394958,11.2823529 2.0605042,13.3932773 C3.39495798,16.9630252 5.45882353,18.1394958 8.75630252,17.2218487 L8.75630252,17.2218487 Z M13.7815126,10.1462185 C13.6638655,10.1428571 13.5764706,10.1630252 13.4789916,10.1731092 C13.4857143,10.2033613 13.4957983,10.2302521 13.4991597,10.2638655 C13.687395,11.0840336 13.7882353,11.8033613 13.8285714,12.4588235 C14.3394958,12.7109244 14.8470588,12.8722689 14.907563,12.8890756 C14.9378151,12.8991597 14.9915966,12.912605 15.0252101,12.9193277 C15.0252101,12.9193277 15.1193277,12.9394958 15.2571429,12.9495798 C15.6638655,12.9764706 16.0369748,12.8621849 16.2823529,12.6436975 C16.4201681,12.5193277 16.6319328,12.2537815 16.5445378,11.8436975 C16.4705882,11.2756303 15.8789916,10.2739496 14.0705882,10.1596639 C13.9831933,10.1495798 13.8857143,10.1462185 13.7815126,10.1462185 L13.7815126,10.1462185 Z M23.3445378,8.97983193 C23.5159664,9.06722689 23.6235294,9.24201681 23.6235294,9.43697479 C23.6235294,9.56470588 23.5865546,12.6268908 21.902521,16.4890756 C20.5344538,19.6319328 19.0084034,20.7478992 17.1159664,20.7478992 C16.1680672,20.7478992 15.1294118,20.4689076 13.9731092,20.0218487 C12.4504202,19.4369748 11.4084034,18.6336134 10.7596639,17.594958 C10.2352941,17.8201681 9.65714286,18.0184874 9.02521008,18.1966387 C8.22521008,18.4218487 7.47563025,18.5327731 6.78319328,18.5327731 C4.17815126,18.5327731 2.31596639,16.9529412 1.11932773,13.7495798 C-0.0201680672,10.6907563 -2.35728743e-05,6.40168067 -2.35728743e-05,6.22016807 C0.00336134454,6.03865546 0.0974789916,5.87394958 0.25210084,5.78319328 C0.406722689,5.69243697 0.598319328,5.69243697 0.752941176,5.78319328 C2.90084034,7.02352941 5.2302521,6.85210084 6.02352941,6.57647059 C7.36470588,6.1092437 9.08907563,5.17142857 9.68403361,3.37310924 C9.74453782,3.19159664 9.89915966,3.0605042 10.0840336,3.03361345 C10.2689076,3.00336134 10.4571429,3.08067227 10.5680672,3.23529412 C10.6285714,3.31596639 11.707563,4.81848739 12.6554622,7.4 C13.2840336,6.39831933 13.7848739,5.72268908 13.8117647,5.68907563 C13.9327731,5.52773109 14.1445378,5.44705882 14.3361345,5.50420168 C14.5344538,5.55462185 14.6823529,5.71596639 14.712605,5.91764706 C14.9210084,7.28235294 16.8571429,8.99327731 18.010084,9.43697479 C19.2,9.89411765 21.5327731,10.0084034 22.8134454,9.0302521 C22.9680672,8.91260504 23.1731092,8.89579832 23.3445378,8.97983193 L23.3445378,8.97983193 Z" id="Teatro-_3Masa"></path>
        </g>
    </g>
</svg>

<svg width="24" height="24" viewBox="0 0 24 24" xmlns="http://www.w3.org/2000/svg"><path d="M10.639 13.716a1.62 1.62 0 00.14-.33c-.947.626-2.641 1.44-5.055 1.359.525.393 1.429.709 2.888.305 1.012-.282 1.694-.732 2.027-1.334zm.793-1.89a.513.513 0 01.366.35c.014.04.286 1.016-.279 2.03-.47.848-1.358 1.46-2.635 1.82a5.776 5.776 0 01-1.55.231c-2.406 0-3.183-1.896-3.193-1.92a.51.51 0 01.07-.497.498.498 0 01.465-.191c4.137.54 6.252-1.654 6.272-1.678a.504.504 0 01.484-.144zm-7.54-.712c.158 0 .33-.01.495-.03.55-.06 1.072-.252 1.072-.252s.366-.195.04-.467c0 0-.343-.397-.914-.397-.333 0-.74.131-1.207.551-.497.444-.077.595.514.595zm1.913.67a6.193 6.193 0 01-1.304.308 5.563 5.563 0 01-.609.037c-.887 0-1.448-.289-1.663-.857-.095-.242-.229-.867.477-1.506.598-.537 1.23-.81 1.879-.81.72 0 1.307.357 1.623.686.316.296.471.686.43 1.082-.053.498-.403.847-.712 1.009l-.121.05zm2.39-2.461c-.239.42-.084.571.232.571.255 0 .618-.097.955-.235.524-.209.97-.548.97-.548s.3-.3-.117-.508c0 0-.312-.218-.732-.218-.394 0-.885.191-1.308.938zm.232 1.583c-.746 0-1.082-.437-1.19-.625-.171-.296-.296-.787.084-1.46.713-1.26 1.677-1.448 2.185-1.448.598 0 1.055.242 1.24.353.525.286.67.716.706.951.1.612-.269 1.036-.383 1.15-.034.034-.07.064-.108.094a5.751 5.751 0 01-1.203.679c-.353.138-.867.306-1.331.306zm12.776 2.786c.155-.282.135-.605-.057-.894-.212-.363-.79-.91-1.791-.91-.303 0-.626.05-.958.15-.858.26-.888.817-.878.982.05.804 1.163 1.025 1.584 1.11.514.1 1.018.11 1.072.11h.01c.033 0 .064 0 .097-.003.407-.037.753-.242.921-.545zm-3.13 4.958c.021-.03.475-.76.145-1.653-.245-.676-.857-1.247-1.815-1.698-1.15-.544-2.11-.575-2.847-.386a3.915 3.915 0 01-1.008 1.553c3.361.252 4.615 2.087 4.665 2.16a.529.529 0 00.374.226.502.502 0 00.487-.202zm-9.317-1.428c3.375-.945 4.8-2.195 3.765-6.736-.635-2.783-1.674-4.844-2.282-5.886-.736 1.294-2.057 2.3-3.883 2.938-.988.343-3.193.464-5.33-.48.05 1.384.248 4.224 1.035 6.335 1.334 3.57 3.398 4.746 6.695 3.829zm5.026-7.076c-.118-.003-.206.017-.303.027.007.03.017.057.02.09.188.821.29 1.54.33 2.196.51.252 1.018.413 1.079.43.03.01.084.024.117.03 0 0 .094.02.232.03.407.027.78-.087 1.025-.305a.815.815 0 00.263-.8c-.074-.568-.666-1.57-2.474-1.684a2.57 2.57 0 00-.29-.014zm9.563-1.166a.51.51 0 01.279.457c0 .128-.037 3.19-1.721 7.052-1.369 3.143-2.895 4.259-4.787 4.259-.948 0-1.987-.28-3.143-.726-1.523-.585-2.565-1.388-3.213-2.427-.525.225-1.103.423-1.735.602-.8.225-1.55.336-2.242.336-2.605 0-4.467-1.58-5.664-4.783C-.02 10.69 0 6.402 0 6.22a.514.514 0 01.252-.437.495.495 0 01.5 0c2.149 1.24 4.478 1.07 5.272.793 1.34-.467 3.065-1.405 3.66-3.203a.5.5 0 01.4-.34.498.498 0 01.484.202c.06.081 1.14 1.583 2.087 4.165a27.06 27.06 0 011.157-1.71.492.492 0 01.524-.186c.198.05.346.212.377.414.208 1.364 2.144 3.075 3.297 3.519 1.19.457 3.523.571 4.803-.407a.507.507 0 01.532-.05z" fill="#5CB615" fill-rule="nonzero"/></svg>
